src/16/devices/network-wired.svg

<svg xmlns="http://www.w3.org/2000/svg" width="16" height="16"><defs><style id="current-color-scheme" type="text/css"></style></defs><path d="M2 2S1 2 1 3v9c0 1 1 1 1 1h2l1 1h6l1-1h2s1 .13 1-1V3c0-1-1-1-1-1H2zm1 2h10v7h-2l-1 1H6l-1-1H3V4z" fill="currentColor" color="#727272"/></svg>

<svg xmlns="http://www.w3.org/2000/svg" width="16" height="16" viewBox="0 0 16 16">
 <defs>
  <style id="current-color-scheme" type="text/css">
   .ColorScheme-Text { color:#727272; } .ColorScheme-Highlight { color:#5294e2; }
  </style>
 </defs>
 <path style="fill:currentColor" class="ColorScheme-Text" d="M 2 2 C 2 2 1 2 1 3 L 1 12 C 1 13 2 13 2 13 L 4 13 L 5 14 L 11 14 L 12 13 L 14 13 C 14 13 15 13.12994 15 12 L 15 3 C 15 2 14 2 14 2 L 2 2 z M 3 4 L 13 4 L 13 11 L 11 11 L 10 12 L 6 12 L 5 11 L 3 11 L 3 4 z"/>
</svg>
